actions/16/journal-new.svg

<svg xmlns="http://www.w3.org/2000/svg" viewBox="0 0 16 16">
  <defs id="defs3051">
<style type="text/css" id="current-color-scheme">.ColorScheme-Text {color:#fcfcfc;}</style>
  </defs>
 <path style="fill:currentColor;fill-opacity:1;stroke:none" 
     d="M 5,2 C 3,2 3,4 3,4 H 2 v 2 h 1 v 4 H 2 v 2 h 1 c 0,0 0,2 2,2 H 9 V 13 H 6 V 3 h 6 c 0,0 1,0 1,1 v 5 h 1 V 4 C 14,2 12,2 12,2 12,2 7,2 5,2 Z M 4,4 C 4,4 4,3 5,3 V 13 C 4,13 4,12 4,12 Z m 7,5 v 2 H 9 v 1 h 2 v 2 h 1 v -2 h 2 V 11 H 12 V 9 Z"
     class="ColorScheme-Text"
     />
</svg>

<svg xmlns="http://www.w3.org/2000/svg" viewBox="0 0 16 16">
  <defs id="defs3051">
    <style type="text/css" id="current-color-scheme">
      .ColorScheme-Text {
        color:#eff0f1;
      }
      </style>
  </defs>
 <path style="fill:currentColor;fill-opacity:1;stroke:none" 
     d="M 3 2 L 3 4 L 2 4 L 2 6 L 3 6 L 3 10 L 2 10 L 2 12 L 3 12 L 3 14 L 9 14 L 9 13 L 6 13 L 6 3 L 13 3 L 13 9 L 14 9 L 14 2 L 3 2 z M 4 3 L 5 3 L 5 13 L 4 13 L 4 3 z M 11 9 L 11 11 L 9 11 L 9 12 L 11 12 L 11 14 L 12 14 L 12 12 L 14 12 L 14 11 L 12 11 L 12 9 L 11 9 z "
     class="ColorScheme-Text"
     />
</svg>
